X: 190
T: Senjidema
%%abc-version 2.0
%%abcx-abcm2ps-target-version 5.9.1 (29 Sep 2008)
%%abc-creator hum2abc beta
%%abcx-conversion-date 2013/10/02 07:44:28
%%abc-edited-by Helmut Schaffrath
%%humdrum-veritas 83621409
%%humdrum-veritas-data 1647289051
%%continueall 1
%%barnumbers 0
L: 1/8
M: 4/4
K: A
e2>f2a3f [I:setbarnb 1]| 
a2c2c BA2 | 
a2e2f e c' b | 
a2>b2a4 | 
a2>b2e'3e' | 
c'2e'> f' c' ba2 | 
a2>b2 c' e' a f | 
e2>f2e4 | 
a2e f2<a2f | 
a2c2cB2c | 
e fa2a2c B | 
A4z4 | 
a2e2f e c' b | 
a2>b2g2f2 | 
e2>f2a3f | 
a2c2cB2c | 
e fa2a2c B | 
A4A3B | 
c ef2a2c B | 
A Be2A4 |]  



